X:1
T:Title
%%score { ( 1 4 ) | ( 2 3 ) }
L:1/8
Q:1/4=87
M:6/8
K:Eb
V:1 treble nm="Grand Piano"
V:4 treble 
V:2 bass 
V:3 bass 
V:1
 [GB][EG][FA] [GB][Ac][GB] | [GB]3 .[EG]3 | [DF][EG][FA] [FA][GB][FA] | [EG]6 | %4
w: J.~H.~Rosecrans * * * * *||||
 [GB][EG][FA] [GB][Ac][GB] | [GB]3 .G3 | FBd edc | [B,DB]6 | [Fd]dd [Ad]cd | [Ge]3 [GB]3 | %10
w: ||||||
 [Fd]dd [Ad][Ac][Ad] | [Ge]6 | [EAc][EAc][EAe] [EGB]3 | [EAc][EAc][EAe] [EGB]3 | %14
w: ||||
 [EGB][B,EG][B,FA] [EGB][Ac][Ad] | [Ge]6 |] %16
w: ||
V:2
 [E,E][E,B,][E,B,] [E,E][E,E][E,E] | [E,E]3 .[E,B,]3 | %2
 [B,,B,][B,,B,][B,,B,] [B,,B,][B,,B,][B,,B,] | [E,B,]6 | [E,E][E,B,][E,B,] [E,E][E,E][E,E] | %5
 [E,E]3 .[E,B,E]3 | [F,B,D][F,B,D][F,B,F] [F,CF][F,B,F][F,=A,E] | B,,6 | z[K:treble] FF z A[B,A] | %9
 [E,B,]E,G, B,G,E, | z[K:treble] FF[K:bass] [B,,B,]2 [B,,B,] | [E,B,]G,B, .E,3 | A,,A,,C, E,3 | %13
 A,,A,,C, E,3 | E,E,E, B,B,[B,,B,] | [E,B,]6 |] %16
V:3
 x6 | x6 | x6 | x6 | x6 | x6 | x6 | x6 | B,3[K:treble] .B,3 | x6 | [B,,B,]3[K:treble][K:bass] z3 | %11
 x6 | x6 | x6 | x6 | x6 |] %16
V:4
 x6 | x6 | x6 | x6 | x6 | x6 | x6 | x6 | x6 | z B,B, z B,B, | x6 | z .B,2 .B,3 | x6 | x6 | x6 | %15
 x6 |] %16

